X:1     %Music
T:Coast of High Barbaree
B:Singing Together, Summer 1967, BBC Publications
F:http://www.folkinfo.org/songs
M:6/8     %Meter
L:1/8     %
K:Bb
D |D2 G G2 A |B3 (c2B) |A3 B2 A | D3 z z
w:There were two lof-ty ships from_ old Eng-land came,
 D |D3-D2 d |d3-d2 D |(G2A) B2 c | d3
w: Blow _high, blow _low, and so_ sail-ed we:
 (B2c) |d2 d B2 d |c2 c A2 c |B2 B (AG)A | D3
w: One_ was the Prince of Lu-ther and the oth-er Prince_ of Wales,
 (B,C)E |G2 B A2 G |D3 C2 D |G3 G2 F | G3-G2   |]
w:Cruis--ing down a-long the coast of the High Bar-bar-ee._